public/img/Logo.svg

<?xml version="1.0" encoding="UTF-8" standalone="no"?>
<svg width="205px" height="152px" viewBox="0 0 205 152" version="1.1" xmlns="http://www.w3.org/2000/svg" xmlns:xlink="http://www.w3.org/1999/xlink">
    <!-- Generator: Sketch 3.8.3 (29802) - http://www.bohemiancoding.com/sketch -->
    <title>Logo + Sign</title>
    <desc>Created with Sketch.</desc>
    <defs></defs>
    <g id="Page-1" stroke="none" stroke-width="1" fill="none" fill-rule="evenodd">
        <g id="New-Logo" transform="translate(-238.000000, -101.000000)">
            <g id="Logo-+-Sign" transform="translate(262.000000, 119.000000)">
                <g id="Logo" transform="translate(0.000000, 0.000000)">
                    <g id="POETIC" fill="#212121">
                        <path d="M25.6191903,7.35018781 C26.2752819,8.77726258 26.6033227,10.3232371 26.6033227,11.9881576 C26.6456512,13.7720011 26.2223727,15.3576159 25.3334744,16.7450497 C24.4445761,18.1324835 23.3440519,19.3018745 22.0318687,20.2532577 C21.6509123,20.5307444 21.1958879,20.8181371 20.6667817,21.1154444 C20.1376756,21.4127516 19.449848,21.6803241 18.6032782,21.9181699 C17.7567084,22.1560157 16.7302579,22.3542176 15.523896,22.5127814 C14.317534,22.6713453 12.8889689,22.750626 11.2381578,22.750626 L6.85718104,22.750626 L6.85718131,42 L0,42 L0,0.75 L11.4921275,0.75 C13.9895084,0.75 16.1588109,1.00766241 18.0001002,1.52299497 C19.8413895,2.03832752 21.3757743,2.75185421 22.6033005,3.66359642 C23.9789761,4.69426153 24.9630987,5.92311304 25.6191903,7.35018781 Z M18.3991286,15.895288 C19.5672119,15.1492109 20.2161373,13.8534124 20.3459244,12.0078534 C20.2593997,9.96595838 19.7186285,8.51309332 18.7235946,7.64921466 C18.0313971,7.17800812 17.0904552,6.78534188 15.9007407,6.47120419 C14.7110262,6.15706649 13.3374674,6 11.780023,6 L7.04281998,6 L7.04281998,17.25 L13.6619256,17.25 C14.4406478,17.25 15.2518046,17.1420168 16.0954203,16.9260471 C16.939036,16.7100775 17.7069311,16.3664945 18.3991286,15.895288 L18.3991286,15.895288 Z" id="P"></path>
                        <path d="M45.4452704,40 C42.373781,40 39.5796207,39.4823084 37.0627058,38.4469097 C34.5457909,37.4115109 32.3915146,35.9640875 30.5998125,34.1045959 L30.6638015,34.1045959 C28.7441206,32.2028431 27.2830521,30.0581208 26.2805521,27.6703645 C25.278052,25.2826082 24.7554801,22.7364108 24.7128205,20.0316957 C24.7128205,17.2847195 25.2247277,14.7173918 26.2485575,12.3296355 C27.2723874,9.94187924 28.7441206,7.79715689 30.6638015,5.89540412 L30.5998125,5.89540412 C32.3915146,4.03591252 34.5457909,2.58848906 37.0627058,1.55309033 C39.5796207,0.517691601 42.373781,0 45.4452704,0 C48.5167599,0 51.3002554,0.517691601 53.7958405,1.55309033 C56.2914257,2.58848906 58.4563667,4.03591252 60.2907284,5.89540412 C62.1250901,7.79715689 63.5754939,9.94187924 64.6419833,12.3296355 C65.7084727,14.7173918 66.2417094,17.2847195 66.2417094,20.0316957 C66.2417094,22.7364108 65.7191374,25.2931734 64.6739778,27.7020602 C63.6288183,30.1109471 62.1890792,32.2451043 60.3547174,34.1045959 C58.5203557,35.9640875 56.34475,37.4115109 53.8278351,38.4469097 C51.3109201,39.4823084 48.5167599,40 45.4452704,40 L45.4452704,40 Z M31.9005128,20.0317881 C31.9005128,22.023851 32.2440072,23.888733 32.9310063,25.6264901 C33.6180055,27.3642471 34.5840835,28.8794637 35.8292694,30.1721854 C37.0744553,31.4649071 38.5557749,32.4927114 40.2732727,33.2556291 C41.9907705,34.0185469 43.8585213,34.4 45.8765812,34.4 C47.8946411,34.4 49.7623919,34.0185469 51.4798897,33.2556291 C53.1973875,32.4927114 54.6787071,31.4649071 55.923893,30.1721854 C57.1690789,28.8794637 58.1351569,27.3642471 58.8221561,25.6264901 C59.5091552,23.888733 59.8526496,22.023851 59.8526496,20.0317881 C59.8526496,18.0397251 59.5091552,16.1642472 58.8221561,14.405298 C58.1351569,12.6463488 57.1690789,11.1205363 55.923893,9.82781457 C54.6787071,8.53509287 53.1973875,7.50728858 51.4798897,6.74437086 C49.7623919,5.98145314 47.8946411,5.6 45.8765812,5.6 C43.8585213,5.6 41.9907705,5.98145314 40.2732727,6.74437086 C38.5557749,7.50728858 37.0744553,8.53509287 35.8292694,9.82781457 C34.5840835,11.1205363 33.6180055,12.6463488 32.9310063,14.405298 C32.2440072,16.1642472 31.9005128,18.0397251 31.9005128,20.0317881 L31.9005128,20.0317881 Z" id="o"></path>
                        <polygon id="E" points="92.0062088 37.5 65.4593935 37.5 65.4 0.75 91.0317329 0.75 91.0317329 6.11188507 71.814497 6.11188525 71.814497 15.2692623 88.0246738 15.2692623 88.0246738 20.6311474 71.814497 20.6311475 71.814497 32.1381148 92.0062088 32.1381149"></polygon>
                        <polygon id="T" points="120.089852 6.11188507 108.641284 6.11188525 108.641284 37.5 102.210209 37.5 102.210209 6.11188525 89.9816863 6.11188507 89.9816863 0.75 120.089852 0.75"></polygon>
                        <polygon id="I" points="125.810256 37.5 119.071795 37.5 119.071795 0.75 125.810256 0.75"></polygon>
                        <path d="M158,31.7068146 C155.862739,33.9318653 153.478146,35.7036384 150.846149,37.022187 C148.214152,38.3407356 145.473354,39 142.623673,39 C139.813571,38.9175907 137.26077,38.4025404 134.965193,37.4548336 C132.669617,36.5071268 130.631334,35.1061899 128.850283,33.251981 C127.14839,31.397772 125.842306,29.2963667 124.931991,26.9477021 C124.021676,24.5990374 123.566526,22.1267959 123.566526,19.5309033 C123.526947,16.8526015 123.972203,14.339156 124.902307,11.9904913 C125.832411,9.64182661 127.14839,7.54042132 128.850283,5.68621236 C130.512597,3.91441269 132.521196,2.52377684 134.876141,1.51426307 C137.231086,0.504749311 139.83336,0 142.683041,0 C145.532722,0 148.253731,0.648963399 150.846149,1.94690967 C153.438567,3.24485594 155.803371,5.00632802 157.940632,7.23137876 L153.962972,11.681458 C152.102764,9.74483976 150.212899,8.23059183 148.293322,7.13866878 C146.373746,6.04674573 144.50367,5.50079239 142.683041,5.50079239 C140.822832,5.50079239 139.101176,5.87162862 137.51802,6.6133122 C135.934863,7.35499578 134.569412,8.3541934 133.421624,9.61093502 C132.273835,10.8676766 131.383323,12.3510216 130.750061,14.0610143 C130.116798,15.771007 129.800172,17.5942851 129.800172,19.5309033 C129.800172,21.4675216 130.116798,23.2804987 130.750061,24.9698891 C131.383323,26.6592794 132.273835,28.1323234 133.421624,29.389065 C134.569412,30.6458066 135.934863,31.6450042 137.51802,32.3866878 C139.101176,33.1283714 140.822832,33.4992076 142.683041,33.4992076 C144.464091,33.4992076 146.324272,32.9429533 148.263638,31.8304279 C150.203005,30.7179025 152.082974,29.2139556 153.903604,27.318542 L158,31.7068146 Z" id="C"></path>
                    </g>
                    <g id="PRAXIS" transform="translate(0.000000, 36.500000)">
                        <path d="M135.299862,40.7857704 C133.55226,40.309615 131.939113,39.6471478 130.460374,38.7983491 C128.981634,37.9495503 127.66423,36.9454985 126.508125,35.7861635 C125.352019,34.6268286 124.370688,33.3847026 123.564103,32.0597484 L129.613463,28.2091195 C129.98987,28.9130014 130.5948,29.7100322 131.428271,30.6002358 C132.261743,31.4904395 133.189302,32.3392255 134.210977,33.1466195 C135.232652,33.9540135 136.321526,34.6268317 137.477632,35.1650943 C138.633737,35.703357 139.776383,35.9724843 140.905603,35.9724843 C142.680091,35.9724843 144.11848,35.7965164 145.220813,35.4445755 C146.323146,35.0926345 147.196934,34.6475394 147.842203,34.1092767 C148.487471,33.5710141 148.917643,33.0224085 149.132733,32.4634434 C149.347822,31.9044783 149.455365,31.3972769 149.455365,30.9418239 C149.455365,30.4863709 149.388151,29.9791695 149.25372,29.4202044 C149.119289,28.8612393 148.756331,28.2608785 148.164835,27.6191038 C147.573339,26.9773291 146.672666,26.325213 145.462787,25.6627358 C144.252909,25.0002587 142.572548,24.3377916 140.421654,23.6753145 C137.302857,22.6815988 134.748708,21.7396533 132.75913,20.8494497 C130.769553,19.9592461 129.196735,19.0690558 128.040629,18.1788522 C126.884524,17.2886486 126.07795,16.3777562 125.620885,15.4461478 C125.16382,14.5145394 124.935291,13.5104876 124.935291,12.4339623 C124.935291,11.3160321 125.217592,10.1360125 125.782201,8.89386792 C126.346811,7.65172335 127.260928,6.52345895 128.524578,5.50904088 C129.788229,4.49462281 131.455147,3.6561878 133.525383,2.99371069 C135.595619,2.33123358 138.163211,2 141.228235,2 C145.368707,2 148.783201,2.77632871 151.471819,4.32900943 C154.160437,5.88169015 156.230642,8.0657616 157.682496,10.8812893 L150.342605,12.6823899 C148.675662,9.41140922 145.637569,7.7759434 141.228235,7.7759434 C138.808479,7.7759434 137.007132,8.12787908 135.82414,8.83176101 C134.641148,9.53564293 134.049661,10.4672374 134.049661,11.6265723 C134.049661,12.3304543 134.358847,12.9618683 134.977229,13.5208333 C135.595611,14.0797984 136.442513,14.618053 137.517961,15.1356132 C138.593408,15.6531734 139.843597,16.1500238 141.268564,16.6261792 C142.693532,17.1023347 144.239464,17.6095361 145.906407,18.1477987 C148.70257,19.1001096 150.907204,20.0938103 152.520375,21.1289308 C154.133546,22.1640513 155.343406,23.2198583 156.149991,24.2963836 C156.956576,25.3729089 157.467406,26.428716 157.682496,27.4638365 C157.897585,28.498957 158.005128,29.4719556 158.005128,30.3828616 C158.005128,31.3351725 157.73627,32.4530858 157.198547,33.7366352 C156.660823,35.0201846 155.746707,36.2416085 154.45617,37.4009434 C153.165633,38.5602783 151.418058,39.533277 149.213391,40.3199686 C147.008724,41.1066601 144.239489,41.5 140.905603,41.5 C138.916025,41.5 137.047464,41.2619259 135.299862,40.7857704 Z" id="S" fill="#212121"></path>
                        <polygon id="I" fill="#212121" points="125.810256 41.5 119.134188 41.5 119.071795 4.75 125.810256 4.75"></polygon>
                        <g id="X" transform="translate(87.871795, 4.750000)" fill="#212121">
                            <path d="M27.8258521,36.75 L17.021454,22.3512295 L7.24317192,36.75 L0,36.75 L13.158429,17.3508197 C12.232908,16.0254032 11.2269219,14.6096387 10.1404407,13.1034836 C9.05395947,11.5973285 7.94737483,10.0811552 6.82065356,8.55491803 C5.69393229,7.02868089 4.60746737,5.5325893 3.5612262,4.06659836 C2.51498502,2.60060742 1.54923842,1.24508819 0.663957426,0 L7.96748911,0 L17.0818138,12.5311475 C18.4499753,10.5229408 19.8784755,8.41435531 21.3673572,6.20532787 C22.8562388,3.99630043 24.2444996,1.92787849 25.532181,0 L32.7753529,0 L21.0051986,17.5315574 L35.1897436,36.75 L27.8258521,36.75 Z" id="x"></path>
                        </g>
                        <path d="M44.9999995,41.5 L32.8721759,27.0409836 L31.4828352,27.0409836 L31.4828352,41.5 L25.0193805,41.5 L24.9589744,4.75 L35.1072024,4.75 C37.4026464,4.75 39.4362987,5.01106296 41.2082204,5.53319672 C42.9801421,6.05533048 44.4500096,6.77827407 45.6178671,7.70204918 C46.9065374,8.78648083 47.862958,10.0516321 48.4871577,11.497541 C49.1113574,12.9434499 49.4234526,14.4897459 49.4234526,16.1364754 C49.4637235,17.9840256 49.0710877,19.6106487 48.2455332,21.0163934 C47.4199788,22.4221382 46.3830175,23.6069624 45.1346181,24.5709016 C44.6916377,24.8922147 44.0875825,25.2235639 43.3224345,25.564959 C42.5572865,25.9063542 41.5303928,26.2176215 40.2417225,26.4987705 C41.2082252,27.7036945 42.2854569,28.9588049 43.4734498,30.2641393 C44.6614428,31.5694737 45.8393503,32.8848294 47.0072078,34.2102459 C48.1750653,35.5356624 49.3227701,36.8208954 50.4503566,38.0659836 C51.5779431,39.3110718 52.5645665,40.4557325 53.4102564,41.5 L44.9999995,41.5 Z M36.8718217,22 C38.9102263,22 40.4096072,21.510209 41.3700094,20.5306122 C42.3304116,19.5510155 42.849805,18.1836822 42.9282051,16.4285714 C42.889005,15.163259 42.6930075,14.1122491 42.3402067,13.2755102 C41.9874059,12.4387713 41.4876123,11.7857166 40.8408108,11.3163265 C40.1940094,10.8469364 39.4002195,10.5204091 38.4594174,10.3367347 C37.5186152,10.1530603 36.440629,10.0408165 35.2254262,10 L31.6974359,10 L31.6974359,22 L36.8718217,22 Z" id="R" fill="#212121"></path>
                        <path d="M22.2187878,7.70204918 C23.5050359,8.7463167 24.4697075,9.99138621 25.1128316,11.4372951 C25.7559556,12.883204 26.0775129,14.4495817 26.0775129,16.1364754 C26.1190047,17.9438615 25.7040922,19.5504028 24.8327628,20.9561475 C23.9614335,22.3618923 22.8826609,23.5467165 21.5964128,24.5106557 C21.2229859,24.7918047 20.776955,25.0829903 20.2583065,25.3842213 C19.7396581,25.6854523 19.0654252,25.9565562 18.2355877,26.197541 C17.4057503,26.4385258 16.3995874,26.6393435 15.217069,26.8 C14.0345505,26.9606565 12.6342208,27.0409836 11.0160376,27.0409836 L6.72165009,27.0409836 L6.72165009,41.5 L0.0622375008,41.5 L0,4.75 L11.2649877,4.75 C13.7130083,4.75 15.8394349,5.01106296 17.6443315,5.53319672 C19.449228,6.05533048 20.9532859,6.77827407 22.1565503,7.70204918 L22.2187878,7.70204918 Z M17.9073449,19.895288 C19.0176444,19.1492109 19.6344681,17.8534124 19.7578348,16.0078534 C19.6755904,13.9659584 19.1615705,12.5130933 18.2157598,11.6492147 C17.5578046,11.1780081 16.6634101,10.7853419 15.5325495,10.4712042 C14.4016889,10.1570665 13.0960786,10 11.6156792,10 L7.11282051,10 L7.11282051,21.25 L13.4044861,21.25 C14.1446858,21.25 14.9157155,21.1420168 15.7175985,20.9260471 C16.5194815,20.7100775 17.2493896,20.3664945 17.9073449,19.895288 L17.9073449,19.895288 Z" id="P" fill="#212121"></path>
                        <g id="A" transform="translate(45.000000, 0.500000)">
                            <polygon points="2 41 18.4440678 0 35 41"></polygon>
                            <polygon id="Triangle-9" fill="#212121" points="25 0 50 41 0 41"></polygon>
                            <polygon id="Triangle-9" fill="#E53935" points="25 11 43 41 7 41"></polygon>
                            <rect id="Rectangle-11" fill="#212121" x="6" y="35" width="38" height="6"></rect>
                        </g>
                    </g>
                </g>
            </g>
        </g>
    </g>
</svg>

<?xml version="1.0" encoding="UTF-8" standalone="no"?>
<svg xmlns="http://www.w3.org/2000/svg" height="152px" width="205px" version="1.1" xmlns:xlink="http://www.w3.org/1999/xlink" viewBox="0 0 205 152"><!-- Generator: Sketch 3.8.3 (29802) - http://www.bohemiancoding.com/sketch -->
 <title>Logo + Sign</title>
 <desc>Created with Sketch.</desc>
 <g id="Page-1" fill-rule="evenodd" fill="none">
  <g id="New-Logo" transform="translate(-238 -101)">
   <g id="Logo-+-Sign" transform="translate(262 119)">
    <g id="Logo" transform="translate(0)">
     <g id="POETIC" fill="#212121">
      <path id="P" d="m25.619 7.3502c0.656 1.4271 0.984 2.9728 0.984 4.6378 0.043 1.784-0.381 3.37-1.27 4.757-0.888 1.387-1.989 2.557-3.301 3.508-0.381 0.278-0.836 0.565-1.365 0.862-0.529 0.298-1.217 0.565-2.064 0.803-0.846 0.238-1.873 0.436-3.079 0.595-1.206 0.158-2.635 0.238-4.286 0.238h-4.3808v19.249h-6.8572v-41.25h11.492c2.498 0 4.667 0.2577 6.508 0.773s3.376 1.2289 4.603 2.1406c1.376 1.0307 2.36 2.2595 3.016 3.6866zm-7.22 8.5448c1.168-0.746 1.817-2.042 1.947-3.887-0.087-2.042-0.627-3.4949-1.622-4.3588-0.693-0.4712-1.634-0.8639-2.823-1.178-1.19-0.3141-2.564-0.4712-4.121-0.4712h-4.7372v11.25h6.6192c0.779 0 1.59-0.108 2.433-0.324 0.844-0.216 1.612-0.56 2.304-1.031z"/>
      <path id="o" d="m45.445 40c-3.071 0-5.865-0.518-8.382-1.553s-4.671-2.483-6.463-4.342h0.064c-1.92-1.902-3.381-4.047-4.383-6.435-1.003-2.387-1.526-4.934-1.568-7.638 0-2.747 0.512-5.315 1.536-7.702 1.023-2.3881 2.495-4.5328 4.415-6.4346h-0.064c1.792-1.8595 3.946-3.3069 6.463-4.3423s5.311-1.5531 8.382-1.5531c3.072 0 5.855 0.51769 8.351 1.5531 2.495 1.0354 4.66 2.4828 6.495 4.3423 1.834 1.9018 3.284 4.0465 4.351 6.4346 1.066 2.387 1.6 4.955 1.6 7.702 0 2.704-0.523 5.261-1.568 7.67s-2.485 4.543-4.319 6.403c-1.835 1.859-4.01 3.307-6.527 4.342s-5.311 1.553-8.383 1.553zm-13.544-19.968c0 1.992 0.343 3.857 1.03 5.594 0.687 1.738 1.653 3.253 2.898 4.546s2.727 2.321 4.444 3.084c1.718 0.763 3.586 1.144 5.604 1.144s3.885-0.381 5.603-1.144c1.717-0.763 3.199-1.791 4.444-3.084s2.211-2.808 2.898-4.546c0.687-1.737 1.031-3.602 1.031-5.594s-0.344-3.868-1.031-5.627-1.653-3.284-2.898-4.5772c-1.245-1.2927-2.727-2.3205-4.444-3.0834-1.718-0.7629-3.585-1.1444-5.603-1.1444s-3.886 0.3815-5.604 1.1444c-1.717 0.7629-3.199 1.7907-4.444 3.0834-1.245 1.2932-2.211 2.8182-2.898 4.5772s-1.03 3.635-1.03 5.627z"/>
      <polygon id="E" points="92.006 37.5 65.459 37.5 65.4 0.75 91.032 0.75 91.032 6.1119 71.814 6.1119 71.814 15.269 88.025 15.269 88.025 20.631 71.814 20.631 71.814 32.138 92.006 32.138"/>
      <polygon id="T" points="120.09 6.1119 108.64 6.1119 108.64 37.5 102.21 37.5 102.21 6.1119 89.982 6.1119 89.982 0.75 120.09 0.75"/>
      <polygon id="I" points="125.81 37.5 119.07 37.5 119.07 0.75 125.81 0.75"/>
      <path id="C" d="m158 31.707c-2.14 2.225-4.52 3.997-7.15 5.315-2.64 1.319-5.38 1.978-8.23 1.978-2.81-0.082-5.36-0.597-7.65-1.545-2.3-0.948-4.34-2.349-6.12-4.203-1.7-1.854-3.01-3.956-3.92-6.304-0.91-2.349-1.36-4.821-1.36-7.417-0.04-2.678 0.4-5.192 1.33-7.541 0.93-2.3482 2.25-4.4496 3.95-6.3038 1.66-1.7718 3.67-3.1624 6.03-4.1719 2.35-1.0096 4.95-1.5143 7.8-1.5143s5.57 0.64896 8.17 1.9469c2.59 1.298 4.95 3.0594 7.09 5.2845l-3.98 4.4496c-1.86-1.9362-3.75-3.4504-5.67-4.5423-1.92-1.092-3.79-1.6379-5.61-1.6379-1.86 0-3.58 0.3708-5.16 1.1125-1.59 0.7417-2.95 1.7409-4.1 2.9976-1.15 1.2571-2.04 2.7401-2.67 4.4501s-0.95 3.533-0.95 5.47 0.32 3.749 0.95 5.439c0.63 1.689 1.52 3.162 2.67 4.419s2.51 2.256 4.1 2.998c1.58 0.741 3.3 1.112 5.16 1.112 1.78 0 3.64-0.556 5.58-1.669 1.94-1.112 3.82-2.616 5.64-4.511l4.1 4.388z"/>
     </g>
     <g id="PRAXIS" transform="translate(0 36.5)">
      <path id="S" fill="#212121" d="m135.3 40.786c-1.75-0.476-3.36-1.139-4.84-1.988-1.48-0.848-2.8-1.853-3.95-3.012-1.16-1.159-2.14-2.401-2.95-3.726l6.05-3.851c0.38 0.704 0.98 1.501 1.82 2.391 0.83 0.89 1.76 1.739 2.78 2.547 1.02 0.807 2.11 1.48 3.27 2.018 1.15 0.538 2.3 0.807 3.43 0.807 1.77 0 3.21-0.175 4.31-0.527s1.98-0.797 2.62-1.336c0.65-0.538 1.08-1.087 1.29-1.646 0.22-0.559 0.33-1.066 0.33-1.521 0-0.456-0.07-0.963-0.21-1.522-0.13-0.559-0.49-1.159-1.09-1.801-0.59-0.642-1.49-1.294-2.7-1.956-1.21-0.663-2.89-1.325-5.04-1.988-3.12-0.993-5.67-1.935-7.66-2.826-1.99-0.89-3.56-1.78-4.72-2.67s-1.96-1.801-2.42-2.733c-0.46-0.931-0.68-1.936-0.68-3.012 0-1.118 0.28-2.298 0.84-3.5401 0.57-1.2422 1.48-2.3704 2.74-3.3849 1.27-1.0144 2.94-1.8528 5.01-2.5153s4.63-0.9937 7.7-0.9937c4.14 0 7.55 0.7763 10.24 2.329s4.76 3.7368 6.21 6.552l-7.34 1.801c-1.66-3.2706-4.7-4.9061-9.11-4.9061-2.42 0-4.22 0.352-5.41 1.0559-1.18 0.7038-1.77 1.6352-1.77 2.7952 0 0.703 0.31 1.335 0.93 1.894s1.46 1.097 2.54 1.615c1.07 0.517 2.32 1.014 3.75 1.49 1.42 0.476 2.97 0.984 4.64 1.522 2.79 0.952 5 1.946 6.61 2.981s2.82 2.091 3.63 3.167c0.81 1.077 1.32 2.133 1.53 3.168 0.22 1.035 0.33 2.008 0.33 2.919 0 0.952-0.27 2.07-0.81 3.354-0.54 1.283-1.45 2.505-2.74 3.664s-3.04 2.132-5.25 2.919c-2.2 0.787-4.97 1.18-8.3 1.18-1.99 0-3.86-0.238-5.61-0.714z"/>
      <polygon id="I" points="125.81 41.5 119.13 41.5 119.07 4.75 125.81 4.75" fill="#212121"/>
      <g id="X" fill="#212121" transform="translate(87.872 4.75)">
       <path id="x" d="m27.826 36.75l-10.805-14.399-9.7778 14.399h-7.2432l13.158-19.399c-0.925-1.326-1.931-2.741-3.018-4.248-1.086-1.506-2.1926-3.022-3.3193-4.5481-1.1268-1.5262-2.2132-3.0223-3.2595-4.4883-1.0462-1.466-2.012-2.8215-2.8972-4.0666h7.3035l9.1145 12.531c1.368-2.008 2.796-4.1166 4.285-6.3257 1.489-2.209 2.877-4.2774 4.165-6.2053h7.243l-11.77 17.532 14.185 19.218h-7.364z"/>
      </g>
      <path id="R" fill="#212121" d="m45 41.5l-12.128-14.459h-1.389v14.459h-6.464l-0.06-36.75h10.148c2.296 0 4.329 0.2611 6.101 0.7832s3.242 1.2451 4.41 2.1688c1.289 1.0845 2.245 2.35 2.869 3.796 0.624 1.445 0.936 2.992 0.936 4.638 0.041 1.848-0.352 3.475-1.177 4.88-0.826 1.406-1.863 2.591-3.111 3.555-0.443 0.321-1.047 0.653-1.813 0.994-0.765 0.341-1.792 0.653-3.08 0.934 0.966 1.205 2.043 2.46 3.231 3.765s2.366 2.621 3.534 3.946c1.168 1.326 2.316 2.611 3.443 3.856 1.128 1.245 2.115 2.39 2.96 3.434h-8.41zm-8.128-19.5c2.038 0 3.538-0.49 4.498-1.469 0.96-0.98 1.48-2.347 1.558-4.102-0.039-1.266-0.235-2.317-0.588-3.153-0.353-0.837-0.852-1.49-1.499-1.96-0.647-0.469-1.441-0.796-2.382-0.979-0.94-0.184-2.018-0.296-3.234-0.337h-3.528v12h5.175z"/>
      <path id="P" fill="#212121" d="m22.219 7.702c1.286 1.0443 2.251 2.2894 2.894 3.735 0.643 1.446 0.965 3.013 0.965 4.699 0.041 1.808-0.374 3.414-1.245 4.82-0.872 1.406-1.95 2.591-3.237 3.555-0.373 0.281-0.819 0.572-1.338 0.873-0.518 0.301-1.193 0.573-2.022 0.814-0.83 0.241-1.836 0.441-3.019 0.602-1.182 0.161-2.583 0.241-4.201 0.241h-4.2943v14.459h-6.6595l-0.0622-36.75h11.265c2.448 0 4.574 0.2611 6.379 0.7832s3.309 1.2451 4.513 2.1688h0.062zm-4.312 12.193c1.111-0.746 1.727-2.042 1.851-3.887-0.082-2.042-0.596-3.495-1.542-4.359-0.658-0.471-1.553-0.864-2.683-1.178-1.131-0.314-2.437-0.471-3.917-0.471h-4.5032v11.25h6.2912c0.741 0 1.512-0.108 2.314-0.324 0.801-0.216 1.531-0.56 2.189-1.031z"/>
      <g id="A" transform="translate(45 0.5)">
       <polygon points="2 41 18.444 0 35 41"/>
       <polygon id="Triangle-9" points="25 0 50 41 0 41" fill="#212121"/>
       <polygon id="Triangle-9" points="25 11 43 41 7 41" fill="#E53935"/>
       <rect id="Rectangle-11" height="6" width="38" y="35" x="6" fill="#212121"/>
      </g>
     </g>
    </g>
   </g>
  </g>
 </g>
</svg>
